X:0938
T:The Masson Laddie.
N:The Mason's Apron
M:C
L:1/8
Q:1/2=112
I: ||
Z:Jack Campin * www.campin.me.uk * 2009
K:G
(BGG)A GAG(E|DE)GA B2AG|c(AAB) ABAG|ABcd  e2 (e/f/g) |
 BGG`A GAG`E|DE`GA B2AG|c`Bcd  efgB|ABcd  e2 (e/f/g) |
 BGd`G eGd`G|BG`dG B2AG|c`AeA  aAeA|cAeA  c2  BA     |
 BGd`G eGd`G|BG`dG B2AG|c`Bcd  efgB|ABcd  e2 (e/f/g)|]

